!!!COM: Music21
!!!OTL: slide_An-Sioda
!!!OMV: slide_An-Sioda
**kern
*clefG2
*k[f#]
*G:
*M12/8
=1
8a
=
8bL
8g
8aJ
8eL
8g
8dJ
4.e
8dL
8e
8gJ
=
8bL
8g
8aJ
8eL
8g
8dJ
8ccL
8b
8ccJ
4b
8a
=
8bL
8g
8aJ
8eL
8g
8dJ
4.e
8dL
8e
8f#J
!!linebreak:original
=
8gL
8bJ
8aL
8g
8b
8aJ
4.g
4g
8ryy
=||
*M12/8
8a
=
8bL
8g
8aJ
8eL
8g
8dJ
4.e
8dL
8e
8gJ
=
8bL
8g
8aJ
8eL
8g
8dJ
8ccL
8b
8ccJ
4b
8a
!!linebreak:original
=
8bL
8g
8aJ
8eL
8g
8dJ
4.e
8dL
8e
8f#J
=
8gL
8bJ
8aL
8g
8b
8aJ
4.g
4g
8ryy
=||
8a
1ryy
4.ryy
=
4.g
4b
8dd
16eeLL
16ff#J
8gg
8eeJ
8ddL
8b
8aJ
=
4.g
4b
8dd
8eeL
8dd
8eeJ
4.gg
!!linebreak:original
=
8ddL
8ee
8ddJ
4b
8dd
16eeLL
16ff#J
8gg
8eeJ
8ddL
8b
8aJ
=
8bL
8aJ
8gL
8e
8dJ
8eL
8cc
8b
8ccJ
4b
8ryy
=||
8a
1ryy
4.ryy
=
4.g
4b
8dd
16eeLL
16ff#J
8gg
8eeJ
8ddL
8b
8aJ
!!linebreak:original
=
4.g
4b
8dd
8eeL
8dd
8eeJ
4.gg
=
8ddL
8ee
8ddJ
4b
8dd
16eeLL
16ff#J
8gg
8eeJ
8ddL
8b
8aJ
=
8bL
8aJ
8gL
8e
8dJ
8eL
8cc
8b
8ccJ
4b
8ryy
=||
*-
